X:19063
T:Xiraldilla (CT 358)
R:Xiraldilla
C:Tradicional
S:Música Tradicional Asturiana, (C) Tello & Tito. Asturies, 2001.
S:http://pagina.de/MusTradAst <telloytito@asturies.org>
N:Xiraldilla, dictada por Rafael Martínez Oria, de veintiséis años, de Avilés.
O:Avilés
A:Asturies
Z:Cancioneru de Torner 358
M:2/4
L:1/8
Q:1/4=160
W:Dicen que tus manos pinchan,
W:para mi son amorosas;
W:también los rosales pinchan
W:y de ellos salen las rosas.
W:No llores, neña,
W:no llores, no;
W:no llores, neña,
W:que aquí estoy yo.
K:G
|: GA Bc|d3 B|c2 A2|FG AB|c3 A|B2 G2 :|
|: c2 AB|G3 E|D2 EF|G2 z2 :||


